X:210
T:Old Joe's
R:jig
M:6/8
L:1/8
K:Dmaj
e|:fAA AFA | BAF A2A | B3 AFA |Bcd efg |
fAA AFA | BAF A2A | B3 AFA | Bdc d3 :|
|: f3 efe | dBA d2e | faa afe |faa b2a |
f3 efe | dBA d2e | fAA AFA | Bdc d3 :|

